frontend/public/svg/e-commerce/bag-2.svg

<svg width="148" height="149" viewBox="0 0 148 149" fill="none" xmlns="http://www.w3.org/2000/svg">
<path d="M50.8602 26.9557C52.3042 23.2842 53.4974 19.9762 54.8908 16.7549C58.5243 8.35381 68.5331 -0.153707 80.4167 0.937125C86.1925 1.46613 90.7652 4.34359 94.8338 8.16741C98.9386 12.0247 101.305 16.9583 103.098 22.2024C103.398 23.078 103.673 23.962 104.049 25.1185C105.12 25.1841 106.223 25.2674 107.33 25.3081C112.596 25.5011 117.861 25.6645 123.125 25.8837C123.951 25.9091 124.767 26.0728 125.538 26.3677C127.573 27.1874 128.414 28.8663 127.473 30.8563C126.769 32.3538 126.668 34.065 127.194 35.6342C132.629 55.6204 135.535 76.1052 139.198 96.4431C140.938 106.104 143.07 115.692 144.885 125.341C145.76 130.005 146.39 134.721 146.967 139.433C147.458 143.453 145.47 145.993 141.408 146.572C138.852 146.94 136.273 147.129 133.69 147.139C98.9044 147.199 64.1182 147.238 29.3323 147.257C23.1306 147.269 16.9308 147.646 10.7291 147.683C8.76569 147.674 6.81426 147.377 4.93758 146.8C1.57188 145.787 0.160115 143.359 0.807264 139.863C2.06743 133.054 3.46013 126.271 4.76428 119.47C7.83855 103.437 10.775 87.3745 14.0042 71.373C15.7612 62.6656 18.0111 54.0572 20.0235 45.4008C20.9364 41.4726 21.7851 37.5293 22.7093 33.6037C23.7955 28.9903 24.6048 28.4843 29.2155 28.2809C33.5428 28.0919 37.8542 27.5588 42.1788 27.274C45.0529 27.0823 47.9389 27.0568 50.8602 26.9557ZM136.992 137.019C135.918 132.447 134.92 128.552 134.094 124.621C131.946 114.403 129.623 104.214 127.83 93.932C124.866 76.9328 122.277 59.8743 119.494 42.8463C119.035 40.0148 118.398 37.2115 117.766 34.004C113.631 34.4274 109.728 33.3011 105.485 33.7415C105.669 35.3168 105.77 36.5351 105.959 37.7414C106.376 40.8443 105.777 43.9985 104.253 46.733C103.912 47.5041 103.322 48.1382 102.577 48.5332C101.832 48.9282 100.976 49.061 100.147 48.9107C99.314 48.8117 98.5362 48.4435 97.9317 47.8617C97.3273 47.28 96.9295 46.5168 96.7996 45.6883C96.6847 45.1849 96.6105 44.671 96.5429 44.1584C96.0868 40.704 95.6378 37.2482 95.1718 33.6909H58.0051C57.6619 36.6083 57.3488 39.3473 57.0141 42.0835C56.8172 43.7172 56.6806 45.3654 56.3386 46.9721C56.2343 47.6507 55.8986 48.2722 55.3883 48.7315C54.878 49.1909 54.2245 49.4597 53.5387 49.4923C51.8289 49.6098 50.8477 48.504 50.3942 47.0134C49.9492 45.6421 49.658 44.2256 49.5258 42.7899C49.3815 40.7296 49.5226 38.6504 49.4733 36.5809C49.4013 35.7523 49.2778 34.9287 49.1032 34.1155C42.9717 34.1234 37.0922 33.7141 30.9055 34.994C24.0704 69.4696 17.2275 103.986 10.3057 138.902C11.3145 138.902 12.4119 138.946 13.5054 138.894C21.5593 138.518 29.6087 138.018 37.6659 137.758C47.593 137.439 57.5254 137.183 67.4573 137.132C89.3075 137.018 111.159 137.049 133.01 137.022C134.227 137.017 135.443 137.019 136.992 137.019ZM93.9445 25.6693C93.13 20.7179 90.6004 16.2103 86.7983 12.9361C82.6168 9.52314 78.0237 8.9327 73.113 10.7521C65.9592 13.4043 62.4334 19.0875 60.4604 26.302L93.9445 25.6693Z" fill="black"/>
</svg>

<svg xmlns="http://www.w3.org/2000/svg" width="148" height="149" fill="none" viewBox="0 0 148 149"><path fill="#000" d="M50.86 26.956c1.444-3.672 2.637-6.98 4.03-10.201C58.525 8.354 68.534-.154 80.418.937c5.775.53 10.348 3.407 14.417 7.23 4.105 3.858 6.471 8.791 8.264 14.035.3.876.575 1.76.951 2.916 1.071.066 2.174.15 3.281.19 5.266.193 10.531.357 15.795.576a7.4 7.4 0 0 1 2.413.484c2.035.82 2.876 2.498 1.935 4.488a6.43 6.43 0 0 0-.279 4.778c5.435 19.986 8.341 40.471 12.004 60.81 1.74 9.66 3.872 19.248 5.687 28.897.875 4.664 1.505 9.38 2.082 14.092.491 4.02-1.497 6.56-5.559 7.139a56 56 0 0 1-7.718.567q-52.179.09-104.358.118c-6.201.012-12.401.389-18.603.426a20 20 0 0 1-5.791-.883c-3.366-1.013-4.778-3.441-4.13-6.937 1.26-6.809 2.652-13.592 3.956-20.393 3.075-16.033 6.011-32.095 9.24-48.097 1.757-8.707 4.007-17.316 6.02-25.972.912-3.928 1.761-7.872 2.685-11.797 1.087-4.614 1.896-5.12 6.506-5.323 4.328-.19 8.64-.722 12.964-1.007 2.874-.192 5.76-.217 8.681-.318m86.132 110.063c-1.074-4.572-2.072-8.467-2.898-12.398-2.148-10.218-4.471-20.407-6.264-30.689-2.964-17-5.553-34.058-8.336-51.086-.459-2.831-1.096-5.634-1.728-8.842-4.135.423-8.038-.703-12.281-.262.184 1.575.285 2.793.474 4a14.5 14.5 0 0 1-1.706 8.991 3.76 3.76 0 0 1-4.106 2.178 3.85 3.85 0 0 1-3.347-3.223 17 17 0 0 1-.257-1.53c-.456-3.454-.905-6.91-1.371-10.467H58.005c-.343 2.917-.656 5.656-.99 8.392-.198 1.634-.334 3.282-.676 4.89a2.975 2.975 0 0 1-2.8 2.52c-1.71.117-2.691-.989-3.145-2.48a19.5 19.5 0 0 1-.868-4.223c-.145-2.06-.003-4.14-.053-6.21a20 20 0 0 0-.37-2.465c-6.131.008-12.01-.4-18.197.879-6.836 34.476-13.678 68.992-20.6 103.908 1.009 0 2.106.044 3.2-.008 8.053-.376 16.103-.876 24.16-1.136 9.927-.319 19.86-.575 29.791-.626 21.85-.114 43.702-.083 65.553-.11 1.217-.005 2.433-.003 3.982-.003M93.945 25.669a21.4 21.4 0 0 0-7.147-12.733c-4.181-3.413-8.774-4.003-13.685-2.184-7.154 2.652-10.68 8.335-12.653 15.55z"/></svg>
